X:1
T:[ID 2-3b]
T:[ID 2-3b]
T:Bezeichnung standardisiert: Menuett Menuet In dieser Quelle auch als: Menuetto
T:Urheber unbekannt Datum in der hier transkribierten schriftlichen Quelle: 1767
C:Urheber unbekannt
C:Datum in der hier transkribierten schriftlichen Quelle: 1767
L:1/8
M:3/4
K:G
V:1 treble 
V:1
 d4 BG | c2 A4 | B2 c2 d2 | e2 f2 g2 | d4 BG | c2 A4 | BddccB | B2 A4 :: d2 dddd | e2 eeee | %10
 f2 fdef | gfga g2 | d4 BG | c2 A4 | (3gfe dcBA | G6 :| %16

